assets/img/braze_icons/chevron-left-double.svg

<svg fill="none" height="24" viewBox="0 0 24 24" width="24" xmlns="http://www.w3.org/2000/svg"><g clip-rule="evenodd" fill="#801ed7" fill-rule="evenodd"><path d="m18.7071 6.29289c.3905.39053.3905 1.02369 0 1.41422l-4.2929 4.29289 4.2929 4.2929c.3905.3905.3905 1.0237 0 1.4142s-1.0237.3905-1.4142 0l-5-5c-.3905-.3905-.3905-1.0237 0-1.4142l5-5.00001c.3905-.39052 1.0237-.39052 1.4142 0z"/><path d="m11.7071 6.29289c.3905.39053.3905 1.02369 0 1.41422l-4.29289 4.29289 4.29289 4.2929c.3905.3905.3905 1.0237 0 1.4142s-1.0237.3905-1.4142 0l-5.00001-5c-.39052-.3905-.39052-1.0237 0-1.4142l5.00001-5.00001c.3905-.39052 1.0237-.39052 1.4142 0z"/></g></svg>

<svg width="24" height="24" viewBox="0 0 24 24" fill="none" xmlns="http://www.w3.org/2000/svg">
<path fill-rule="evenodd" clip-rule="evenodd" d="M18.7071 6.29289C19.0976 6.68342 19.0976 7.31658 18.7071 7.70711L14.4142 12L18.7071 16.2929C19.0976 16.6834 19.0976 17.3166 18.7071 17.7071C18.3166 18.0976 17.6834 18.0976 17.2929 17.7071L12.2929 12.7071C11.9024 12.3166 11.9024 11.6834 12.2929 11.2929L17.2929 6.29289C17.6834 5.90237 18.3166 5.90237 18.7071 6.29289Z" fill="#801ED7"/>
<path fill-rule="evenodd" clip-rule="evenodd" d="M11.7071 6.29289C12.0976 6.68342 12.0976 7.31658 11.7071 7.70711L7.41421 12L11.7071 16.2929C12.0976 16.6834 12.0976 17.3166 11.7071 17.7071C11.3166 18.0976 10.6834 18.0976 10.2929 17.7071L5.29289 12.7071C4.90237 12.3166 4.90237 11.6834 5.29289 11.2929L10.2929 6.29289C10.6834 5.90237 11.3166 5.90237 11.7071 6.29289Z" fill="#801ED7"/>
</svg>
